X: 10054
T: Dick Sherlock's
R: reel
M: 4/4
K: Dmajor
ADFB AFEF|D2 FA BABd|eB B/B/B egfe|dfed BcdB|
ADFB AFEF|D2 FA BABd|egfe dBAG|FAEG FD D2:|
dcde fefg|a2 ba afdf|gB B/B/B efge|fedf edBd|
AFAB defg|a2 ba afdf|e/f/g fe dBAG|FAEG FD D2:|

